archdroid-icon-theme/Archdroid-Blue/status/scalable/bluetooth-searching.svg

<svg fill="#2196F3" height="48" viewBox="0 0 48 48" width="48" xmlns="http://www.w3.org/2000/svg"><path d="m28.48 24.02 4.64 4.64c.56-1.45.88-3.02.88-4.66 0-1.63-.31-3.19-.86-4.63zm10.58-10.59-2.53 2.53c1.25 2.41 1.97 5.14 1.97 8.05s-.72 5.63-1.97 8.05l2.4 2.4c1.93-3.1 3.07-6.73 3.07-10.63 0-3.82-1.09-7.37-2.94-10.4zm-7.65 1.98-11.41-11.41h-2v15.17l-9.17-9.17-2.83 2.83 11.17 11.17-11.17 11.17 2.83 2.83 9.17-9.17v15.17h2l11.41-11.41-8.58-8.59zm-9.41-3.75 3.76 3.76-3.76 3.75zm3.76 20.93-3.76 3.75v-7.52z" fill="#2196F3"/></svg>

<svg fill="#2196F3" height="48" viewBox="0 0 48 48" width="48" xmlns="http://www.w3.org/2000/svg"><path d="M28.48 24.02l4.64 4.64c.56-1.45.88-3.02.88-4.66 0-1.63-.31-3.19-.86-4.63l-4.66 4.65zm10.58-10.59l-2.53 2.53c1.25 2.41 1.97 5.14 1.97 8.05s-.72 5.63-1.97 8.05l2.4 2.4c1.93-3.1 3.07-6.73 3.07-10.63 0-3.82-1.09-7.37-2.94-10.4zm-7.65 1.98L20 4h-2v15.17L8.83 10 6 12.83 17.17 24 6 35.17 8.83 38 18 28.83V44h2l11.41-11.41L22.83 24l8.58-8.59zM22 11.66l3.76 3.76L22 19.17v-7.51zm3.76 20.93L22 36.34v-7.52l3.76 3.77z"/></svg>
